X:1
T:The Ninety and Nine
T:The Ninety and Nine
T:Ira David  Sankey, 1874
T:Elizabeth Cecelia Douglas Clephane, 1868
T:Public Domain Courtesy of the Cyber Hymnal™
T:Public Domain Courtesy of the Cyber Hymnal™
C:Ira David  Sankey, 1874
Z:Public Domain
Z:Courtesy of the Cyber Hymnal™
%%score 1 2
L:1/8
Q:1/4=95
M:6/8
K:Ab
V:1 treble 
V:2 bass 
V:1
 [CE]/[CE]/ | [EA]>[EA][EA] [EA]2 [EA] | ([EG][EG])[EG] [EA]2 [EA]/[EA]/ | %3
w: 1.~There were|nine- ty and nine that|safe- * ly lay In the|
w: 2.~“Lo- rd,|Th- ou hast here Thy|nine- * ty~and nine; Are they|
w: 3.~Bu- t|none of the ran- somed|e- * ver knew Ho- w|
w: 4.~“Lo- rd,|whence are those blood drops|all * the way Th- at|
w: 5.~A- nd|all through the mount- ains,|thun- * der riven A- nd|
 [Ac]2 ([Ac]/[Ac]/) [EA]2 [EA] | [GB]3- [GB]2 ([CE]/[CE]/) | ([EA][EA])[EA] [EA]2 [EA]/[EA]/ | %6
w: she- lter * of the|fold. * But *|one * was out on the|
w: not e- * nough for|Thee?” * But~the *|Shep- * herd made an- swer:|
w: deep were~the * wa- ters|crossed; * Nor~how *|dark~was * the night th- e|
w: mark out~the * mount- ain’s|track?” * “They~were *|shed * for one who had|
w: up from~the * rock- y|steep, * There~a- *|rose~a * glad cry to the|
 [Ac]2 [Ac] [EA]2 ([EA]/[EA]/) | [FB]2 [FB]/[FB]/ ([EG][EG])[EG] | [CA]3- [CA]2 ([CA]/[CA]/) | %9
w: hills a- way, Far *|off from the gates * of|gold. * A- *|
w: “This of Mine Has *|wan- dered a- way * from|Me; * And *|
w: Lord passed through Ere~He *|found H- is sheep~that * was|lost. * Ou- *|
w: gone a- stray Ere~the *|Shep- herd could bring * him|back.” * “Lord, *|
w: gate of heaven, “Re- *|joice! I have found * My|sheep!” * And~the *|
 [=Ec]>[Ec][Ec] ([FA][FA])[FA] | [=Ec]2 [Ec] [FA]2 [_E_e] | [Ae]>[Ae][Ae] ([Ae][Ac])[EA] | %12
w: way on the mount- * ains|wild and bare. A-|way from the ten- * der|
w: al- though the road * be|rough and steep, I|go to the des- * ert|
w: t in the desert * He|heard its cry, Si-|ck a- nd helpless * and~rea-|
w: whence are Thy hands * so|rent and torn?” “They|are pierced to- night * by|
w: an- g- els echoed * a-|round the throne, “Re-|joice, for the Lord * brings|
 ([GB][FA])[GB] [Ac]2 [Ae] | [Ae]>[Ae][Af] ([Ae][Ec])[=DA] | ([DB][Ec])[DB] [CA]2- | [CA]4 z2 |] %16
w: Shep- * herd’s care. A-|way from the ten- * der|Shep- * herd’s care.||
w: to~find * My sheep, I|go to the des- * ert~to|find * My sheep.”||
w: dy * to die; Si-|ck a- nd helpless * and|ready * to die.||
w: many * a thorn; They|are pierced to- night * by|many * a thorn.”||
w: back * His own! Re-|joice, for the Lord * brings|back * His own!”||
V:2
 [A,,A,]/[A,,A,]/ | [A,C]>[A,C][A,C] [A,C]2 [A,C] | ([E,B,][E,B,])[E,B,] [A,C]2 [A,C]/[A,C]/ | %3
 [A,E]2 ([A,E]/[A,E]/) [A,C]2 [A,C] | [E,E]3- [E,E]2 ([A,E]/[A,E]/) | %5
 ([A,C][A,C])[A,C] [A,C]2 [A,C]/[A,C]/ | [A,E]2 [A,E] [A,C]2 ([C,A,]/[C,A,]/) | %7
 [D,A,]2 [D,B,]/[D,B,]/ ([E,B,][E,B,])[E,B,] | [A,,A,]3- [A,,A,]2 ([F,A,]/[F,A,]/) | %9
 [C,G,]>[C,G,][C,C] ([F,C][F,C])[F,C] | [C,C]2 [C,C] [F,C]2 [G,B,] | %11
 [A,C]>[A,C][A,C] ([A,C][A,E])[C,A,] | ([E,E][E,E])[E,E] [A,E]2 [A,C] | %13
 [A,C]>[A,C][A,D] ([A,C]A,)[F,B,] | ([E,G,][E,G,])[E,G,] [A,,A,]2- | [A,,A,]4 z2 |] %16

